Numix-GalliumOS/24/categories/applications-debugging.svg

<?xml version="1.0" encoding="UTF-8" standalone="no"?>
<svg
   xmlns:dc="http://purl.org/dc/elements/1.1/"
   xmlns:cc="http://creativecommons.org/ns#"
   xmlns:rdf="http://www.w3.org/1999/02/22-rdf-syntax-ns#"
   xmlns:svg="http://www.w3.org/2000/svg"
   xmlns="http://www.w3.org/2000/svg"
   xmlns:sodipodi="http://sodipodi.sourceforge.net/DTD/sodipodi-0.dtd"
   xmlns:inkscape="http://www.inkscape.org/namespaces/inkscape"
   width="24"
   height="24"
   viewBox="0 0 24 24"
   id="svg2"
   version="1.1"
   inkscape:version="0.91 r"
   sodipodi:docname="applications-debugging.svg">
  <metadata
     id="metadata48">
    <rdf:RDF>
      <cc:Work
         rdf:about="">
        <dc:format>image/svg+xml</dc:format>
        <dc:type
           rdf:resource="http://purl.org/dc/dcmitype/StillImage" />
        <dc:title />
      </cc:Work>
    </rdf:RDF>
  </metadata>
  <defs
     id="defs46" />
  <sodipodi:namedview
     pagecolor="#ffffff"
     bordercolor="#666666"
     borderopacity="1"
     objecttolerance="10"
     gridtolerance="10"
     guidetolerance="10"
     inkscape:pageopacity="0"
     inkscape:pageshadow="2"
     inkscape:window-width="1920"
     inkscape:window-height="1056"
     id="namedview44"
     showgrid="true"
     inkscape:zoom="30.341309"
     inkscape:cx="5.3988028"
     inkscape:cy="11.051582"
     inkscape:window-x="0"
     inkscape:window-y="24"
     inkscape:window-maximized="1"
     inkscape:current-layer="svg2">
    <inkscape:grid
       type="xygrid"
       id="grid4176" />
  </sodipodi:namedview>
  <g
     id="g4196"
     transform="translate(1.1145083,1.1143618)">
    <path
       d="m 11.992188,4.933594 c -0.07422,0 -0.152344,0.019531 -0.21875,0.0625 -0.06641,0.046875 -0.125,0.121094 -0.121094,0.21875 0.0078,0.039062 0.0039,0.070312 0,0.109375 0,0.109375 0.08984,0.199219 0.203125,0.199219 0.109375,0 0.199219,-0.089844 0.199219,-0.199219 0,-0.109375 -0.08984,-0.199219 -0.199219,-0.203125 0.03906,-0.023438 0.09375,-0.035156 0.136719,-0.039063 0.15625,0 0.273437,0.089844 0.359374,0.222657 0.08594,0.136718 0.128907,0.316406 0.125,0.460937 -0.0078,0.363281 -0.1875,0.667969 -0.453124,0.902344 C 11.761719,6.902344 11.410156,7.0625 11.074219,7.125 l 0.02734,0.144531 C 11.460938,7.203125 11.835938,7.035156 12.125,6.78125 12.414062,6.527344 12.621094,6.179688 12.628906,5.765625 12.632812,5.589844 12.585938,5.390625 12.480469,5.226562 12.375,5.058594 12.207031,4.933594 11.992188,4.933594 Z"
       id="path6"
       inkscape:connector-curvature="0"
       style="fill:#ec7878" />
    <path
       d="m 9.78125,4.933594 c 0.070312,0 0.148438,0.019531 0.214844,0.0625 0.066406,0.046875 0.125,0.121094 0.125,0.21875 -0.01172,0.039062 -0.0039,0.070312 -0.0039,0.109375 0,0.109375 -0.08984,0.199219 -0.199219,0.199219 C 9.808594,5.523438 9.71875,5.433594 9.71875,5.324219 9.71875,5.214844 9.804688,5.125 9.914062,5.121094 9.875,5.097656 9.820312,5.085938 9.78125,5.082031 c -0.160156,0 -0.277344,0.089844 -0.363281,0.222657 -0.082031,0.136718 -0.125,0.316406 -0.125,0.460937 0.00781,0.363281 0.1875,0.667969 0.453125,0.902344 0.265625,0.234375 0.617187,0.394531 0.949218,0.457031 l -0.02734,0.144531 C 10.308594,7.203125 9.933594,7.035156 9.644531,6.78125 9.355469,6.527344 9.152344,6.179688 9.140625,5.765625 c 0,-0.175781 0.046875,-0.375 0.152344,-0.539063 C 9.394531,5.058594 9.5625,4.933594 9.78125,4.933594 Z"
       id="path8"
       inkscape:connector-curvature="0"
       style="fill:#ec7878" />
    <path
       d="M 10.734375,6.382812 C 9.878906,6.421875 9.046875,6.839844 8.496094,7.492188 8.207031,7.800781 7.941406,8.152344 7.816406,8.5625 7.820312,8.628906 7.84375,8.691406 7.863281,8.753906 7.679688,8.765625 7.449219,8.742188 7.324219,8.902344 7.09375,9.15625 7.039062,9.511719 6.925781,9.824219 c -0.519531,1.789062 -0.253906,3.828125 0.847657,5.347656 0.597656,0.816406 1.488281,1.460937 2.503906,1.628906 0.171875,0.01563 0.367187,0.0625 0.523437,-0.02734 0.05859,-0.05078 0.144531,-0.03516 0.191407,0.01562 0.214843,0.109376 0.453124,0.0039 0.671874,-0.02344 1.039063,-0.230469 1.933594,-0.941406 2.492188,-1.835937 1.039062,-1.597657 1.210938,-3.695313 0.566406,-5.480469 C 14.636719,9.234375 14.554688,9.007812 14.386719,8.84375 14.273438,8.765625 14.128906,8.738281 13.996094,8.730469 14.082031,8.550781 14.023438,8.335938 13.894531,8.191406 13.429688,7.429688 12.734375,6.769531 11.859375,6.507812 c -0.367187,-0.101562 -0.746094,-0.128906 -1.125,-0.125 z"
       id="path10"
       inkscape:connector-curvature="0"
       style="fill:#ec7878" />
    <path
       d="m 10.847656,6.59375 c -0.0039,0 -0.01172,0 -0.01953,0 C 10.53125,6.617188 10.222656,6.648438 9.9375,6.746094 9.117188,7.035156 8.492188,7.699219 8.066406,8.4375 8,8.554688 8.046875,8.710938 8.175781,8.722656 c 0.917969,0.00391 1.835938,0 2.753907,0.00391 0,0 0,0 0.0039,0 0.917968,-0.00391 1.832031,0 2.75,-0.00391 C 13.816406,8.710938 13.863281,8.554688 13.796875,8.4375 13.367188,7.699219 12.742188,7.035156 11.921875,6.746094 11.636719,6.648438 11.332031,6.617188 11.03125,6.59375 10.95312,6.58984 10.96875,6.613281 10.93359,6.613281 10.89843,6.609371 10.91015,6.589844 10.84765,6.59375 Z"
       id="path12"
       inkscape:connector-curvature="0"
       style="fill:#ec7878" />
    <path
       d="m 11.507812,8.953125 c -0.269531,0 -0.484374,0.21875 -0.484374,0.492187 l 0,6.992188 c 0,0.09766 0,0.171875 0.128906,0.183594 2.050781,-0.113282 3.734375,-2.304688 3.734375,-4.984375 0,-0.882813 -0.175781,-1.714844 -0.488281,-2.433594 0,0 -0.0039,0 -0.0039,0 -0.0039,-0.015625 -0.01172,-0.03125 -0.01953,-0.046875 0,-0.00391 0,-0.00391 0,-0.00391 0,-0.00391 0,-0.00391 0,-0.00391 C 14.316406,9.03125 14.199219,8.953125 14.0625,8.953125 Z"
       id="path14"
       inkscape:connector-curvature="0"
       style="fill:#ec7878" />
    <path
       d="m 10.261719,8.953125 c 0.269531,0 0.488281,0.21875 0.488281,0.492187 l 0,6.992188 c 0,0.09766 0,0.171875 -0.132812,0.183594 C 8.566406,16.507812 6.882812,14.316406 6.882812,11.636719 6.882812,10.753906 7.0625,9.921875 7.375,9.203125 7.378906,9.1875 7.386719,9.171875 7.394531,9.15625 c 0,-0.00391 0,-0.00391 0,-0.00391 0,-0.00391 0,-0.00391 0,-0.00391 0.058594,-0.117188 0.175781,-0.195313 0.3125,-0.195313 z"
       id="path16"
       inkscape:connector-curvature="0"
       style="fill:#ec7878" />
    <g
       style="fill:#ec7878;fill-rule:evenodd"
       id="g18">
      <path
         d="m 8.027344,9.15625 -0.3125,0.386719 -0.492188,-0.035157 0.273438,0.410157 -0.1875,0.460937 0.476562,-0.132812 0.375,0.320312 L 8.1875,10.074219 8.605469,9.8125 8.144531,9.636719 Z m 1.542968,0.46875 -0.261718,1.320312 -1.230469,0.527344 1.167969,0.660156 0.125,1.335938 0.984375,-0.910156 1.3125,0.292968 -0.5625,-1.21875 0.6875,-1.15625 -1.335938,0.160157 z m 4.03125,0.609375 -0.308593,0.382813 -0.496094,-0.03516 0.269531,0.414063 -0.183594,0.457031 0.476563,-0.128906 0.375,0.320312 0.02344,-0.496093 0.421876,-0.257813 -0.464844,-0.175781 z M 7.648438,12.59375 7.269531,13.355469 6.917969,13.40625 c 0.125,0.421875 0.292969,0.828125 0.507812,1.214844 L 7.648438,14.503906 8.394531,14.898438 8.25,14.066406 8.855469,13.476562 8.019531,13.355469 Z m 6.144531,0.07422 -0.742188,0.84375 -1.117187,-0.132813 0.578125,0.964844 -0.472657,1.019531 1.09375,-0.246093 0.515626,0.476562 c 0.140624,-0.148438 0.265624,-0.304688 0.382812,-0.46875 l 0.03125,-0.367188 0.296875,-0.164062 c 0.101563,-0.179688 0.191406,-0.371094 0.269531,-0.558594 l -0.617187,-0.265625 z m -3.691407,2.277343 -0.308593,0.382813 -0.496094,-0.03516 0.269531,0.414062 -0.183594,0.460938 0.476563,-0.128907 0.375,0.316407 0.02344,-0.492188 0.421876,-0.261719 -0.464844,-0.175781 z"
         id="path20"
         inkscape:connector-curvature="0" />
      <path
         style="fill-opacity:0.9020004"
         d="m 14.375,12.898438 c 0,0.773437 -1.523438,1.402343 -3.40625,1.402343 -1.878906,0 -3.40625,-0.628906 -3.40625,-1.402343 C 7.5625,12.125 9.089844,11.5 10.96875,11.5 c 1.882812,0 3.40625,0.625 3.40625,1.398438 z"
         id="path22"
         inkscape:connector-curvature="0" />
    </g>
    <path
       style="fill:#ec7878;fill-opacity:0.45899999"
       d="m 8.453125,15.414062 c 0.542969,0.554688 1.25,0.960938 2.03125,1.046876 0.04687,0.01562 0.140625,0.01172 0.117187,-0.0625 -0.0039,-0.171876 -0.0039,-0.339844 -0.0039,-0.511719 0,-0.105469 0,-0.08594 -0.07813,-0.03516 C 9.71875,16.339844 9.035156,15.75 8.453125,15.414062 Z m 4.839844,0.03516 c -0.585938,0.335937 -1.265625,0.929687 -2.070313,0.441406 -0.07813,-0.05078 -0.07813,-0.07031 -0.07422,0.03516 0,0.167969 -0.0039,0.339844 -0.0078,0.511719 -0.02344,0.07031 0.07031,0.07813 0.121094,0.0625 0.777343,-0.08594 1.484375,-0.492188 2.03125,-1.050781 z"
       id="path24"
       inkscape:connector-curvature="0" />
    <g
       style="fill:#ec7878;fill-rule:evenodd"
       id="g26">
      <path
         d="m 13.054688,8.253906 c 0,0.949219 -0.957032,1.71875 -2.140626,1.71875 -1.179687,0 -2.140624,-0.769531 -2.140624,-1.71875 0,-0.949218 0.960937,-1.71875 2.140624,-1.71875 1.183594,0 2.140626,0.769532 2.140626,1.71875 z"
         id="path28"
         inkscape:connector-curvature="0" />
      <path
         d="m 10.039062,5.269531 c 0,0.066407 -0.054687,0.121094 -0.117187,0.121094 -0.066406,0 -0.117187,-0.054687 -0.117187,-0.121094 0,-0.070312 0.050781,-0.125 0.117187,-0.125 0.0625,0 0.117187,0.054688 0.117187,0.125 z"
         id="path30"
         inkscape:connector-curvature="0" />
      <path
         d="m 11.964844,5.269531 c 0,0.066407 -0.05078,0.121094 -0.113282,0.121094 -0.06641,0 -0.121093,-0.054687 -0.121093,-0.121094 0,-0.070312 0.05469,-0.125 0.121093,-0.125 0.0625,0 0.113282,0.054688 0.113282,0.125 z"
         id="path32"
         inkscape:connector-curvature="0" />
    </g>
  </g>
  <path
     style="fill:none;stroke:#ec7878;stroke-width:0.75;stroke-linecap:round;stroke-linejoin:round;stroke-miterlimit:4;stroke-dasharray:none"
     d="m 19.125,11.998032 c 0,3.937551 -3.190241,7.126968 -7.123037,7.126968 -3.9367233,0 -7.1269631,-3.189417 -7.1269631,-7.126968 0,-3.933615 3.1902398,-7.1230322 7.1269631,-7.1230322 3.932796,0 7.123037,3.1894172 7.123037,7.1230322 z"
     id="path42"
     inkscape:connector-curvature="0" />
  <path
     style="fill:none;fill-rule:evenodd;stroke:#ec7878;stroke-width:0.99999994px;stroke-linecap:round;stroke-linejoin:miter;stroke-opacity:1"
     d="m 11.99995,3.5069494 0,16.9859296"
     id="path4212"
     inkscape:connector-curvature="0" />
  <path
     style="fill:none;fill-rule:evenodd;stroke:#ec7878;stroke-width:1px;stroke-linecap:round;stroke-linejoin:miter;stroke-opacity:1"
     d="M 20.49305,12 3.5071212,12"
     id="path4212-5"
     inkscape:connector-curvature="0" />
</svg>

<svg xmlns="http://www.w3.org/2000/svg" viewBox="0 0 24 24">
 <g transform="translate(1.1145083,1.1143618)">
  <path d="m 11.992 4.934 c -0.074 0 -0.152 0.02 -0.219 0.063 -0.066 0.047 -0.125 0.121 -0.121 0.219 0.008 0.039 0.004 0.07 0 0.109 0 0.109 0.09 0.199 0.203 0.199 0.109 0 0.199 -0.09 0.199 -0.199 0 -0.109 -0.09 -0.199 -0.199 -0.203 0.039 -0.023 0.094 -0.035 0.137 -0.039 0.156 0 0.273 0.09 0.359 0.223 0.086 0.137 0.129 0.316 0.125 0.461 -0.008 0.363 -0.188 0.668 -0.453 0.902 c -0.262 0.234 -0.613 0.395 -0.949 0.457 l 0.027 0.145 c 0.359 -0.066 0.734 -0.234 1.023 -0.488 0.289 -0.254 0.496 -0.602 0.504 -1.016 0.004 -0.176 -0.043 -0.375 -0.148 -0.539 -0.105 -0.168 -0.273 -0.293 -0.488 -0.293" style="fill:#ec7878"/>
  <path d="m 9.781 4.934 c 0.07 0 0.148 0.02 0.215 0.063 0.066 0.047 0.125 0.121 0.125 0.219 -0.012 0.039 -0.004 0.07 -0.004 0.109 0 0.109 -0.09 0.199 -0.199 0.199 c -0.109 0 -0.199 -0.09 -0.199 -0.199 0 -0.109 0.086 -0.199 0.195 -0.203 -0.039 -0.023 -0.094 -0.035 -0.133 -0.039 c -0.16 0 -0.277 0.09 -0.363 0.223 -0.082 0.137 -0.125 0.316 -0.125 0.461 0.008 0.363 0.188 0.668 0.453 0.902 0.266 0.234 0.617 0.395 0.949 0.457 l -0.027 0.145 c -0.359 -0.066 -0.734 -0.234 -1.023 -0.488 -0.289 -0.254 -0.492 -0.602 -0.504 -1.016 c 0 -0.176 0.047 -0.375 0.152 -0.539 c 0.102 -0.168 0.27 -0.293 0.488 -0.293" style="fill:#ec7878"/>
  <path d="m 10.734 6.383 c -0.855 0.039 -1.688 0.457 -2.238 1.109 -0.289 0.309 -0.555 0.66 -0.68 1.07 0.004 0.066 0.027 0.129 0.047 0.191 -0.184 0.012 -0.414 -0.012 -0.539 0.148 -0.23 0.254 -0.285 0.609 -0.398 0.922 c -0.52 1.789 -0.254 3.828 0.848 5.348 0.598 0.816 1.488 1.461 2.504 1.629 0.172 0.016 0.367 0.063 0.523 -0.027 0.059 -0.051 0.145 -0.035 0.191 0.016 0.215 0.109 0.453 0.004 0.672 -0.023 1.039 -0.23 1.934 -0.941 2.492 -1.836 1.039 -1.598 1.211 -3.695 0.566 -5.48 c -0.086 -0.215 -0.168 -0.441 -0.336 -0.605 -0.113 -0.078 -0.258 -0.105 -0.391 -0.113 0.086 -0.18 0.027 -0.395 -0.102 -0.539 -0.465 -0.762 -1.16 -1.422 -2.035 -1.684 c -0.367 -0.102 -0.746 -0.129 -1.125 -0.125 z" style="fill:#ec7878"/>
  <path d="m 10.848 6.594 c -0.004 0 -0.012 0 -0.02 0 c -0.297 0.023 -0.605 0.055 -0.891 0.152 -0.82 0.289 -1.445 0.953 -1.871 1.691 -0.066 0.117 -0.02 0.273 0.109 0.285 c 0.918 0.004 1.836 0 2.754 0.004 0 0 0 0 0.004 0 0.918 -0.004 1.832 0 2.75 -0.004 c 0.133 -0.012 0.18 -0.168 0.113 -0.285 -0.43 -0.738 -1.055 -1.402 -1.875 -1.691 -0.285 -0.098 -0.59 -0.129 -0.891 -0.152 -0.078 -0.004 -0.063 0.02 -0.098 0.02 -0.035 -0.004 -0.023 -0.023 -0.086 -0.02" style="fill:#ec7878"/>
  <path d="m 11.508 8.953 c -0.27 0 -0.484 0.219 -0.484 0.492 l 0 6.992 c 0 0.098 0 0.172 0.129 0.184 2.051 -0.113 3.734 -2.305 3.734 -4.984 0 -0.883 -0.176 -1.715 -0.488 -2.434 0 0 -0.004 0 -0.004 0 -0.004 -0.016 -0.012 -0.031 -0.02 -0.047 0 -0.004 0 -0.004 0 -0.004 0 -0.004 0 -0.004 0 -0.004 c -0.059 -0.117 -0.176 -0.195 -0.313 -0.195" style="fill:#ec7878"/>
  <path d="m 10.262 8.953 c 0.27 0 0.488 0.219 0.488 0.492 l 0 6.992 c 0 0.098 0 0.172 -0.133 0.184 c -2.051 -0.113 -3.734 -2.305 -3.734 -4.984 0 -0.883 0.18 -1.715 0.492 -2.434 0.004 -0.016 0.012 -0.031 0.02 -0.047 c 0 -0.004 0 -0.004 0 -0.004 0 -0.004 0 -0.004 0 -0.004 0.059 -0.117 0.176 -0.195 0.313 -0.195 z" style="fill:#ec7878"/>
  <g style="fill:#ec7878;fill-rule:evenodd">
   <path d="m 8.03 9.156 -0.313 0.387 -0.492 -0.035 0.273 0.41 -0.188 0.461 0.477 -0.133 0.375 0.32 l 0.027 -0.492 0.418 -0.262 -0.461 -0.176 m 1.426 -0.012 -0.262 1.32 -1.23 0.527 1.168 0.66 0.125 1.336 0.984 -0.91 1.313 0.293 -0.563 -1.219 0.688 -1.156 -1.336 0.16 z m 4.03 0.609 -0.309 0.383 -0.496 -0.035 0.27 0.414 -0.184 0.457 0.477 -0.129 0.375 0.32 0.023 -0.496 0.422 -0.258 -0.465 -0.176 z m -5.953 2.359 -0.379 0.762 -0.352 0.051 c 0.125 0.422 0.293 0.828 0.508 1.215 l 0.223 -0.117 0.746 0.395 -0.145 -0.832 0.605 -0.59 -0.836 -0.121 m 5.773 -0.687 -0.742 0.844 -1.117 -0.133 0.578 0.965 -0.473 1.02 1.094 -0.246 0.516 0.477 c 0.141 -0.148 0.266 -0.305 0.383 -0.469 l 0.031 -0.367 0.297 -0.164 c 0.102 -0.18 0.191 -0.371 0.27 -0.559 l -0.617 -0.266 z m -3.691 2.277 -0.309 0.383 -0.496 -0.035 0.27 0.414 -0.184 0.461 0.477 -0.129 0.375 0.316 0.023 -0.492 0.422 -0.262 -0.465 -0.176 z"/>
   <path d="m 14.375 12.898 c 0 0.773 -1.523 1.402 -3.406 1.402 -1.879 0 -3.406 -0.629 -3.406 -1.402 c 0 -0.773 1.527 -1.398 3.406 -1.398 c 1.883 0 3.406 0.625 3.406 1.398 z" style="fill-opacity:0.902"/>
  </g>
  <path d="m 8.453 15.414 c 0.543 0.555 1.25 0.961 2.031 1.047 0.047 0.016 0.141 0.012 0.117 -0.063 -0.004 -0.172 -0.004 -0.34 -0.004 -0.512 0 -0.105 0 -0.086 -0.078 -0.035 c -0.801 0.488 -1.484 -0.102 -2.066 -0.437 m 4.84 0.035 c -0.586 0.336 -1.266 0.93 -2.07 0.441 -0.078 -0.051 -0.078 -0.07 -0.074 0.035 0 0.168 -0.004 0.34 -0.008 0.512 -0.023 0.07 0.07 0.078 0.121 0.063 0.777 -0.086 1.484 -0.492 2.031 -1.051 z" style="fill:#ec7878;fill-opacity:0.459"/>
  <g style="fill:#ec7878;fill-rule:evenodd">
   <path d="m 13.05 8.254 c 0 0.949 -0.957 1.719 -2.141 1.719 -1.18 0 -2.141 -0.77 -2.141 -1.719 0 -0.949 0.961 -1.719 2.141 -1.719 1.184 0 2.141 0.77 2.141 1.719 z"/>
   <path d="m 10.04 5.27 c 0 0.066 -0.055 0.121 -0.117 0.121 -0.066 0 -0.117 -0.055 -0.117 -0.121 0 -0.07 0.051 -0.125 0.117 -0.125 0.063 0 0.117 0.055 0.117 0.125 z"/>
   <path d="m 11.965 5.27 c 0 0.066 -0.051 0.121 -0.113 0.121 -0.066 0 -0.121 -0.055 -0.121 -0.121 0 -0.07 0.055 -0.125 0.121 -0.125 0.063 0 0.113 0.055 0.113 0.125 z"/>
  </g>
 </g>
 <path d="m 19.13 11.998 c 0 3.938 -3.19 7.127 -7.123 7.127 -3.937 0 -7.127 -3.189 -7.127 -7.127 0 -3.934 3.19 -7.123 7.127 -7.123 3.933 0 7.123 3.189 7.123 7.123 z" style="stroke-dasharray:none;fill:none;stroke-miterlimit:4;stroke:#ec7878;stroke-linecap:round;stroke-linejoin:round;stroke-width:0.75"/>
 <path d="m 12 3.507 0 16.986" style="stroke-opacity:1;fill:none;stroke:#ec7878;fill-rule:evenodd;stroke-linecap:round;stroke-linejoin:miter;stroke-width:1"/>
 <path d="m 20.493 12 -16.986 0" style="stroke-opacity:1;fill:none;stroke:#ec7878;fill-rule:evenodd;stroke-linecap:round;stroke-linejoin:miter;stroke-width:1"/>
</svg>
